packages/core/src/svgs/m87.svg

<svg width="24" height="24" viewBox="0 0 24 24" fill="none" xmlns="http://www.w3.org/2000/svg">
<g clip-path="url(#clip0_31_13470)">
<path d="M0 0H24V24H0V0Z" fill="#181B1E"/>
<path fill-rule="evenodd" clip-rule="evenodd" d="M12.0001 19.2858C13.9324 19.2858 15.7855 18.5182 17.1518 17.1518C18.5182 15.7855 19.2858 13.9324 19.2858 12.0001C19.2858 10.0678 18.5182 8.21463 17.1518 6.84829C15.7855 5.48196 13.9324 4.71436 12.0001 4.71436C10.0678 4.71436 8.21463 5.48196 6.84829 6.84829C5.48196 8.21463 4.71436 10.0678 4.71436 12.0001C4.71436 13.9324 5.48196 15.7855 6.84829 17.1518C8.21463 18.5182 10.0678 19.2858 12.0001 19.2858ZM11.9829 18.8572C10.9613 18.8532 9.9829 18.4441 9.26257 17.7195C8.54225 16.995 8.1388 16.0143 8.14079 14.9926C8.14278 13.9709 8.55003 12.9918 9.27317 12.27C9.99631 11.5483 10.9762 11.143 11.9979 11.143C13.0196 11.143 13.9995 11.5483 14.7227 12.27C15.4458 12.9918 15.8531 13.9709 15.8551 14.9926C15.857 16.0143 15.4536 16.995 14.7333 17.7195C14.013 18.4441 13.0346 18.8532 12.0129 18.8572H12.0172C14.6144 18.8486 16.7144 16.6458 16.7144 13.9286C16.7144 11.2072 14.6058 9.00007 12.0001 9.00007C9.39436 9.00007 7.28578 11.2072 7.28578 13.9286C7.28578 16.6458 9.38578 18.8486 11.9829 18.8572ZM15.4286 15.4286C15.4287 16.335 15.0698 17.2045 14.4305 17.847C13.7912 18.4895 12.9236 18.8527 12.0172 18.8572C13.4315 18.8486 14.5715 17.7944 14.5715 16.5001C14.5715 15.1972 13.4186 14.1429 12.0001 14.1429C10.5815 14.1429 9.42864 15.1972 9.42864 16.5001C9.42864 17.7944 10.5686 18.8486 11.9829 18.8572C11.3056 18.8538 10.6444 18.6499 10.0828 18.2711C9.52124 17.8923 9.08446 17.3556 8.82759 16.7289C8.57071 16.1021 8.50526 15.4133 8.63948 14.7493C8.7737 14.0854 9.10159 13.4761 9.58176 12.9983C10.0619 12.5205 10.6729 12.1957 11.3375 12.0647C12.0021 11.9338 12.6906 12.0027 13.3161 12.2627C13.9415 12.5227 14.476 12.9622 14.852 13.5256C15.228 14.0891 15.4286 14.7513 15.4286 15.4286ZM17.5715 13.5001C17.5715 16.4486 15.0986 18.8401 12.0386 18.8572C13.7402 18.847 15.3684 18.1626 16.5662 16.9539C17.764 15.7453 18.4337 14.1111 18.4286 12.4095C18.4235 10.7079 17.744 9.07768 16.5389 7.87626C15.3339 6.67483 13.7017 6.00019 12.0001 6.00019C10.2984 6.00019 8.66624 6.67483 7.46121 7.87626C6.25618 9.07768 5.57663 10.7079 5.57153 12.4095C5.56642 14.1111 6.23617 15.7453 7.43397 16.9539C8.63178 18.1626 10.2599 18.847 11.9615 18.8572C8.9015 18.8401 6.42864 16.4486 6.42864 13.5001C6.42864 10.5429 8.92293 8.14293 12.0001 8.14293C15.0772 8.14293 17.5715 10.5429 17.5715 13.5001ZM12.8272 18.5572C13.2657 18.367 13.6252 18.0315 13.8452 17.6073C14.0653 17.183 14.1324 16.6959 14.0353 16.2279C13.9382 15.76 13.6827 15.3398 13.312 15.0381C12.9413 14.7364 12.478 14.5717 12.0001 14.5717C11.5221 14.5717 11.0588 14.7364 10.6881 15.0381C10.3174 15.3398 10.062 15.76 9.96487 16.2279C9.86775 16.6959 9.93486 17.183 10.1549 17.6073C10.3749 18.0315 10.7345 18.367 11.1729 18.5572C10.971 18.3875 10.8261 18.1598 10.758 17.905C10.6899 17.6502 10.7017 17.3806 10.7921 17.1327C10.8824 16.8849 11.0467 16.6708 11.2628 16.5196C11.4789 16.3683 11.7363 16.2872 12.0001 16.2872C12.2638 16.2872 12.5212 16.3683 12.7373 16.5196C12.9534 16.6708 13.1178 16.8849 13.2081 17.1327C13.2984 17.3806 13.3103 17.6502 13.2422 17.905C13.174 18.1598 13.0292 18.3875 12.8272 18.5572Z" fill="white"/>
</g>
<defs>
<clipPath id="clip0_31_13470">
<rect width="24" height="24" fill="white"/>
</clipPath>
</defs>
</svg>

<svg xmlns="http://www.w3.org/2000/svg" width="24" height="24" fill="none" viewBox="0 0 24 24"><g clip-path="url(#a)"><path fill="#181B1E" d="M0 0h24v24H0z"/><path fill="#fff" fill-rule="evenodd" d="M12 19.286a7.285 7.285 0 1 0 0-14.57 7.285 7.285 0 0 0 0 14.57m-.017-.429a3.857 3.857 0 1 1 .03 0h.004c2.597-.008 4.697-2.211 4.697-4.928C16.714 11.207 14.606 9 12 9s-4.714 2.207-4.714 4.929c0 2.717 2.1 4.92 4.697 4.928m3.446-3.428a3.43 3.43 0 0 1-3.412 3.428c1.415-.008 2.555-1.063 2.555-2.357 0-1.303-1.153-2.357-2.572-2.357-1.418 0-2.571 1.054-2.571 2.357 0 1.294 1.14 2.349 2.554 2.357a3.429 3.429 0 1 1 3.446-3.428m2.143-1.929c0 2.949-2.473 5.34-5.533 5.357a6.428 6.428 0 1 0-.078 0C8.901 18.84 6.43 16.45 6.43 13.5c0-2.957 2.494-5.357 5.571-5.357s5.572 2.4 5.572 5.357m-4.745 5.057a2.078 2.078 0 1 0-1.654 0 1.286 1.286 0 1 1 1.654 0" clip-rule="evenodd"/></g><defs><clipPath id="a"><path fill="#fff" d="M0 0h24v24H0z"/></clipPath></defs></svg>
